dist/img/logo.svg

<svg width="126" height="126" viewBox="0 0 126 126" fill="none" xmlns="http://www.w3.org/2000/svg">
<path d="M44.1905 100.974L32.7316 105.034V55.4306C32.7316 49.1009 39.2435 40.2998 44.2158 40.2998L44.1905 100.974Z" fill="url(#paint0_linear_212_470)"/>
<path d="M49.8947 76.5881V15.712L61.3789 11.7275V59.8686C61.3789 66.1983 55.0689 76.5881 49.8947 76.5881Z" fill="url(#paint1_linear_212_470)"/>
<path d="M93.989 37.2987C94.5383 37.9372 95.2213 38.4474 95.9896 38.7933C96.7579 39.1391 97.5929 39.3121 98.4356 39.3001C99.2782 39.2881 100.108 39.0913 100.866 38.7237C101.624 38.356 102.292 37.8265 102.823 37.1726C103.669 36.0763 104.101 34.7179 104.046 33.3349C103.991 31.952 103.451 30.6325 102.52 29.6072C97.9527 24.2985 92.3538 19.9719 86.0627 16.8898C79.7717 13.8077 72.9196 12.0344 65.9221 11.6772V23.2271C71.306 23.5713 76.5655 24.9945 81.3874 27.412C86.2092 29.8295 90.4949 33.1918 93.989 37.2987Z" fill="#2C3F68"/>
<path d="M22.9384 63.3234C22.9778 52.9894 26.9843 43.0644 34.1318 35.5947C41.2793 28.1251 51.0229 23.6802 61.3537 23.1764V11.6519C51.0986 12.0182 41.1841 15.423 32.8706 21.4333C24.5571 27.4437 18.22 35.7881 14.6649 45.4059C11.1099 55.0236 10.4975 65.4804 12.9055 75.4468C15.3135 85.4132 20.6332 94.4391 28.1883 101.377V83.1195C24.7539 77.0856 22.945 70.2647 22.9384 63.3234Z" fill="#2C3F68"/>
<path d="M101.839 88.3652C100.623 87.5225 99.1368 87.164 97.6706 87.3599C96.2043 87.5559 94.8643 88.2922 93.9134 89.4244C90.1412 93.8496 85.4521 97.4037 80.1704 99.8409C74.8887 102.278 69.1403 103.54 63.3225 103.54C57.5047 103.54 51.7562 102.278 46.4745 99.8409C41.1928 97.4037 36.5038 93.8496 32.7316 89.4244V104.984C43.2868 112.731 56.3899 116.191 69.3978 114.665C82.4058 113.14 94.3507 106.742 102.823 96.7628C103.341 96.1601 103.728 95.4566 103.961 94.6969C104.193 93.9371 104.265 93.1375 104.173 92.3485C104.08 91.5595 103.825 90.7982 103.423 90.1126C103.022 89.427 102.482 88.8321 101.839 88.3652Z" fill="#2C3F68"/>
<path d="M63.07 125.788C50.7098 125.788 38.6272 122.126 28.35 115.265C18.0729 108.404 10.0629 98.6527 5.33281 87.2434C0.602761 75.8341 -0.634834 63.2795 1.77652 51.1674C4.18788 39.0554 10.1399 27.9297 18.8799 19.1973C27.6199 10.465 38.7553 4.51821 50.878 2.10897C63.0007 -0.300279 75.5662 0.936234 86.9855 5.66214C98.4049 10.388 108.165 18.3911 115.032 28.6592C121.899 38.9274 125.564 50.9994 125.564 63.3488C125.551 79.9047 118.962 95.7787 107.245 107.486C95.5283 119.192 79.6404 125.775 63.07 125.788ZM63.07 4.26319C51.3677 4.26319 39.9282 7.73062 30.1984 14.2269C20.4686 20.7232 12.8856 29.9566 8.40847 40.7591C3.93133 51.5617 2.76119 63.4482 5.04604 74.9153C7.33089 86.3823 12.9681 96.9148 21.2447 105.181C29.5212 113.446 40.0653 119.074 51.5434 121.352C63.0215 123.63 74.9179 122.456 85.7281 117.978C96.5382 113.5 105.776 105.92 112.274 96.1959C118.772 86.4718 122.238 75.0409 122.233 63.3488C122.213 47.6801 115.972 32.6593 104.881 21.5822C93.7891 10.5051 78.7524 4.27654 63.07 4.26319Z" fill="url(#paint2_linear_212_470)"/>
<defs>
<linearGradient id="paint0_linear_212_470" x1="75.5891" y1="8.5" x2="1.25675" y2="144.933" gradientUnits="userSpaceOnUse">
<stop stop-color="#BC8459"/>
<stop offset="0.28" stop-color="#97623E"/>
<stop offset="0.42" stop-color="#C3825A"/>
<stop offset="0.55" stop-color="#EA9E72"/>
<stop offset="0.63" stop-color="#F9A97B"/>
<stop offset="0.71" stop-color="#E79B70"/>
<stop offset="0.88" stop-color="#BA7753"/>
<stop offset="1" stop-color="#975B3D"/>
</linearGradient>
<linearGradient id="paint1_linear_212_470" x1="77.6839" y1="94.8711" x2="35.9984" y2="-1.26113" gradientUnits="userSpaceOnUse">
<stop stop-color="#BC8459"/>
<stop offset="0.28" stop-color="#97623E"/>
<stop offset="0.42" stop-color="#C3825A"/>
<stop offset="0.55" stop-color="#EA9E72"/>
<stop offset="0.63" stop-color="#F9A97B"/>
<stop offset="0.71" stop-color="#E79B70"/>
<stop offset="0.88" stop-color="#BA7753"/>
<stop offset="1" stop-color="#975B3D"/>
</linearGradient>
<linearGradient id="paint2_linear_212_470" x1="0.600952" y1="63.3488" x2="125.564" y2="63.3488" gradientUnits="userSpaceOnUse">
<stop stop-color="#BC8459"/>
<stop offset="0.28" stop-color="#97623E"/>
<stop offset="0.42" stop-color="#C3825A"/>
<stop offset="0.55" stop-color="#EA9E72"/>
<stop offset="0.63" stop-color="#F9A97B"/>
<stop offset="0.71" stop-color="#E79B70"/>
<stop offset="0.88" stop-color="#BA7753"/>
<stop offset="1" stop-color="#975B3D"/>
</linearGradient>
</defs>
</svg>

<svg width="126" height="126" fill="none" xmlns="http://www.w3.org/2000/svg"><path d="m44.19 100.974-11.458 4.06V55.431c0-6.33 6.511-15.131 11.484-15.131l-.026 60.674Z" fill="url(#a)"/><path d="M49.895 76.588V15.712l11.484-3.985V59.87c0 6.33-6.31 16.72-11.484 16.72Z" fill="url(#b)"/><path d="M93.989 37.299a5.756 5.756 0 0 0 8.834-.126 5.897 5.897 0 0 0-.303-7.566A51.734 51.734 0 0 0 86.063 16.89a51.779 51.779 0 0 0-20.14-5.213v11.55A40.234 40.234 0 0 1 93.988 37.3ZM22.938 63.323a40.33 40.33 0 0 1 11.194-27.728 40.4 40.4 0 0 1 27.222-12.419V11.652a51.77 51.77 0 0 0-28.483 9.781 51.703 51.703 0 0 0-18.206 23.973 51.654 51.654 0 0 0-1.76 30.04 51.686 51.686 0 0 0 15.283 25.931V83.12a40.095 40.095 0 0 1-5.25-19.797Z" fill="#2C3F68"/><path d="M101.839 88.365a5.937 5.937 0 0 0-7.926 1.06A40.18 40.18 0 0 1 80.17 99.84a40.213 40.213 0 0 1-47.438-10.417v15.56a51.776 51.776 0 0 0 70.091-8.221 5.758 5.758 0 0 0 1.35-4.414 5.75 5.75 0 0 0-2.334-3.984Z" fill="#2C3F68"/><path d="M63.07 125.788a62.533 62.533 0 0 1-34.72-10.523A62.451 62.451 0 0 1 5.333 87.243a62.389 62.389 0 0 1-3.556-36.076 62.423 62.423 0 0 1 17.103-31.97A62.511 62.511 0 0 1 50.878 2.11a62.545 62.545 0 0 1 36.108 3.553 62.482 62.482 0 0 1 28.046 22.997 62.4 62.4 0 0 1 10.532 34.69 62.463 62.463 0 0 1-18.319 44.137 62.572 62.572 0 0 1-44.175 18.302Zm0-121.525a59.2 59.2 0 0 0-32.872 9.964 59.122 59.122 0 0 0-21.79 26.532 59.063 59.063 0 0 0-3.362 34.156 59.098 59.098 0 0 0 16.199 30.266 59.183 59.183 0 0 0 30.298 16.171 59.21 59.21 0 0 0 34.185-3.374 59.152 59.152 0 0 0 26.546-21.782 59.073 59.073 0 0 0 9.959-32.847 59.137 59.137 0 0 0-17.352-41.767A59.241 59.241 0 0 0 63.07 4.263Z" fill="url(#c)"/><defs><linearGradient id="a" x1="75.589" y1="8.5" x2="1.257" y2="144.933" gradientUnits="userSpaceOnUse"><stop stop-color="#BC8459"/><stop offset=".28" stop-color="#97623E"/><stop offset=".42" stop-color="#C3825A"/><stop offset=".55" stop-color="#EA9E72"/><stop offset=".63" stop-color="#F9A97B"/><stop offset=".71" stop-color="#E79B70"/><stop offset=".88" stop-color="#BA7753"/><stop offset="1" stop-color="#975B3D"/></linearGradient><linearGradient id="b" x1="77.684" y1="94.871" x2="35.998" y2="-1.261" gradientUnits="userSpaceOnUse"><stop stop-color="#BC8459"/><stop offset=".28" stop-color="#97623E"/><stop offset=".42" stop-color="#C3825A"/><stop offset=".55" stop-color="#EA9E72"/><stop offset=".63" stop-color="#F9A97B"/><stop offset=".71" stop-color="#E79B70"/><stop offset=".88" stop-color="#BA7753"/><stop offset="1" stop-color="#975B3D"/></linearGradient><linearGradient id="c" x1=".601" y1="63.349" x2="125.564" y2="63.349" gradientUnits="userSpaceOnUse"><stop stop-color="#BC8459"/><stop offset=".28" stop-color="#97623E"/><stop offset=".42" stop-color="#C3825A"/><stop offset=".55" stop-color="#EA9E72"/><stop offset=".63" stop-color="#F9A97B"/><stop offset=".71" stop-color="#E79B70"/><stop offset=".88" stop-color="#BA7753"/><stop offset="1" stop-color="#975B3D"/></linearGradient></defs></svg>
